source/img/javascript.svg

<svg width="66" height="69" viewBox="0 0 66 69" version="1.1" xmlns="http://www.w3.org/2000/svg" xmlns:xlink="http://www.w3.org/1999/xlink">
<title>javascript</title>
<desc>Created using Figma</desc>
<g id="Canvas" transform="translate(50 -418)">
<g id="javascript" style="mix-blend-mode:luminosity">
<g id="Vector">
<use xlink:href="#path0_fill" transform="translate(-49.5 418)" fill="#EFC75E"/>
</g>
</g>
</g>
<defs>
<path id="path0_fill" d="M 0 0L 65 0L 65 69L 0 69L 0 0ZM 59.6754 52.5435C 59.2015 49.3954 57.2704 46.7504 51.5423 44.2836C 49.549 43.2917 47.3335 42.6017 46.6754 41.0061C 46.429 40.0574 46.391 39.5399 46.5508 38.9792C 46.9571 37.122 49.029 36.5642 50.654 37.0817C 51.7102 37.4267 52.6852 38.2893 53.2973 39.6693C 56.0977 37.7258 56.0977 37.7258 58.0504 36.4349C 57.3192 35.2274 56.9562 34.707 56.4633 34.1924C 54.7571 32.1655 52.4848 31.1305 48.7879 31.2196L 46.8785 31.4755C 45.0477 31.9499 43.3035 32.9849 42.2473 34.3649C 39.1598 38.0765 40.0508 44.5452 43.7883 47.219C 47.4852 50.1515 52.891 50.7955 53.5817 53.5584C 54.2317 56.9221 51.2254 58.0003 48.2571 57.6121C 46.0606 57.0946 44.8446 55.9274 43.504 53.7711L 38.5477 56.7927C 39.1165 58.1727 39.7665 58.7736 40.7415 59.9811C 45.454 65.0296 57.2352 64.7709 59.3504 57.0946C 59.429 56.8359 60.0004 55.0678 59.5508 52.3509L 59.6754 52.5435ZM 35.3465 31.7141L 29.2581 31.7141C 29.2581 37.2859 29.2337 42.8231 29.2337 48.4035C 29.2337 51.9455 29.4044 55.1971 28.86 56.1976C 27.9663 58.1785 25.6642 57.9255 24.6187 57.5776C 23.5462 57.0141 23.0019 56.2379 22.3708 55.1195C 22.2002 54.8176 22.0729 54.556 22.0269 54.556L 17.0842 57.7904C 17.9102 59.6016 19.1154 61.1599 20.67 62.1517C 22.9856 63.618 26.0975 64.0924 29.3556 63.3161C 31.4763 62.6664 33.3044 61.3295 34.2604 59.2595C 35.6417 56.5857 35.3492 53.3083 35.3356 49.6398C 35.3681 43.7345 35.3356 37.8264 35.3356 31.8751L 35.3465 31.7141Z"/>
</defs>
</svg>

<svg width="66" height="69" xmlns="http://www.w3.org/2000/svg" xmlns:xlink="http://www.w3.org/1999/xlink"><use xlink:href="#path0_fill" transform="translate(.5)" fill="#EFC75E"/><defs><path id="path0_fill" d="M0 0h65v69H0V0zm59.675 52.544c-.473-3.149-2.405-5.794-8.133-8.26-1.993-.992-4.209-1.682-4.867-3.278-.246-.949-.284-1.466-.124-2.027.406-1.857 2.478-2.415 4.103-1.897 1.056.345 2.031 1.207 2.643 2.587 2.8-1.943 2.8-1.943 4.753-3.234-.73-1.208-1.094-1.728-1.587-2.243-1.706-2.026-3.978-3.061-7.675-2.972l-1.91.256c-1.83.474-3.575 1.509-4.63 2.889-3.088 3.712-2.197 10.18 1.54 12.854 3.697 2.932 9.103 3.576 9.794 6.34.65 3.363-2.357 4.441-5.325 4.053-2.196-.517-3.412-1.685-4.753-3.84l-4.956 3.02c.569 1.38 1.218 1.982 2.194 3.19 4.712 5.048 16.493 4.789 18.608-2.887.079-.26.65-2.027.2-4.744l.125.193zm-24.328-20.83h-6.089c0 5.572-.024 11.11-.024 16.69 0 3.541.17 6.793-.374 7.794-.894 1.98-3.196 1.727-4.241 1.38-1.073-.564-1.617-1.34-2.248-2.459-.17-.301-.298-.563-.344-.563l-4.943 3.234c.826 1.812 2.031 3.37 3.586 4.362 2.316 1.466 5.427 1.94 8.686 1.164 2.12-.65 3.948-1.986 4.904-4.056 1.382-2.674 1.09-5.952 1.076-9.62.032-5.906 0-11.814 0-17.765l.01-.16z"/></defs></svg>
